symbols/web/headset_off/materialsymbolsrounded/headset_off_wght300gradN25fill1_20px.svg

<svg xmlns="http://www.w3.org/2000/svg" height="20" width="20"><path d="m17.021 14.75-3.875-3.875q.208-.229.51-.417.302-.187.698-.187h1.417V9.208q0-2.375-1.656-4.041Q12.458 3.5 10.062 3.5q-.895 0-1.739.271-.844.271-1.511.771l-.874-.917q.833-.604 1.885-.99 1.052-.385 2.239-.385 1.438 0 2.709.552 1.271.552 2.208 1.5.938.948 1.49 2.208.552 1.261.552 2.698Zm-6.313 3.521q-.25 0-.437-.188-.188-.187-.188-.437 0-.229.188-.427.187-.198.437-.198h4.375q.042 0 .094-.011.052-.01.094-.052l-.875-.875h-.021q-.583 0-1.052-.437-.469-.438-.469-1.042v-.021L4.958 6.688q-.25.541-.406 1.197-.156.657-.156 1.303v1.083h1.416q.626 0 1.063.448.437.448.437 1.073v2.77q0 .626-.437 1.073-.437.448-1.063.448H4.667q-.646 0-1.084-.437-.437-.438-.437-1.084V9.188q0-.959.239-1.803.24-.843.657-1.614L1.625 3.354q-.187-.187-.187-.437t.187-.438q.187-.208.448-.198.26.011.427.198l15.229 15.188q.209.229.219.479.01.25-.219.437-.187.209-.437.209t-.417-.167l-.604-.604q-.209.125-.386.187-.177.063-.385.063Z"/></svg>

<svg xmlns="http://www.w3.org/2000/svg" height="20" width="20"><path d="M17.021 14.75 13.146 10.875Q13.354 10.646 13.656 10.458Q13.958 10.271 14.354 10.271H15.771V9.208Q15.771 6.833 14.115 5.167Q12.458 3.5 10.062 3.5Q9.167 3.5 8.323 3.771Q7.479 4.042 6.812 4.542L5.938 3.625Q6.771 3.021 7.823 2.635Q8.875 2.25 10.062 2.25Q11.5 2.25 12.771 2.802Q14.042 3.354 14.979 4.302Q15.917 5.25 16.469 6.51Q17.021 7.771 17.021 9.208ZM10.708 18.271Q10.458 18.271 10.271 18.083Q10.083 17.896 10.083 17.646Q10.083 17.417 10.271 17.219Q10.458 17.021 10.708 17.021H15.083Q15.125 17.021 15.177 17.01Q15.229 17 15.271 16.958L14.396 16.083H14.375Q13.792 16.083 13.323 15.646Q12.854 15.208 12.854 14.604V14.583L4.958 6.688Q4.708 7.229 4.552 7.885Q4.396 8.542 4.396 9.188V10.271H5.812Q6.438 10.271 6.875 10.719Q7.312 11.167 7.312 11.792V14.562Q7.312 15.188 6.875 15.635Q6.438 16.083 5.812 16.083H4.667Q4.021 16.083 3.583 15.646Q3.146 15.208 3.146 14.562V9.188Q3.146 8.229 3.385 7.385Q3.625 6.542 4.042 5.771L1.625 3.354Q1.438 3.167 1.438 2.917Q1.438 2.667 1.625 2.479Q1.812 2.271 2.073 2.281Q2.333 2.292 2.5 2.479L17.729 17.667Q17.938 17.896 17.948 18.146Q17.958 18.396 17.729 18.583Q17.542 18.792 17.292 18.792Q17.042 18.792 16.875 18.625L16.271 18.021Q16.062 18.146 15.885 18.208Q15.708 18.271 15.5 18.271Z"/></svg>
